X: 1
T: Lass O'Gowrie
M: 2/4
L: 1/8
R: polka
K: Dmaj
FA AB|d>e dc|BA B/c/d|e>d ef|
FA AB|de f>e|dB Af|ef/e/ d2:|
|:fa de|fa ag/2f/2|gb ef|gb ba|
fa ef|de f>e|dB Af|ef/e/ d2:|
